src/assets/x-button.svg

<svg width="93" height="94" viewBox="0 0 93 94" fill="none" xmlns="http://www.w3.org/2000/svg">
<g filter="url(#filter0_d)">
<path d="M42.4983 0C19.0649 0 0 19.0773 0 42.5264C0 65.9754 19.0649 85.0528 42.4983 85.0528C65.933 85.0528 85 65.9754 85 42.5264C85 19.0773 65.933 0 42.4983 0ZM42.4983 79.4754C22.1378 79.4754 5.57387 62.8999 5.57387 42.5264C5.57387 22.1526 22.1376 5.57755 42.4983 5.57755C62.8605 5.57755 79.4257 22.1528 79.4257 42.5264C79.4259 62.8999 62.8605 79.4754 42.4983 79.4754Z" fill="black"/>
<ellipse cx="42.5" cy="42.5264" rx="42.5" ry="42.5264" fill="#A10094"/>
<path d="M62.4188 22.5952C60.8603 21.0357 58.3357 21.0357 56.7772 22.5952L42.5011 36.8801L28.225 22.5952C26.6665 21.0357 24.1413 21.0357 22.5828 22.5952C21.0243 24.1538 21.0243 26.6823 22.5828 28.241L36.8571 42.5258L22.581 56.811C21.0225 58.3694 21.0225 60.897 22.581 62.4571C23.3601 63.237 24.3813 63.6267 25.4019 63.6267C26.4226 63.6267 27.4435 63.237 28.2223 62.4571L42.5011 48.1707L56.7772 62.4577C57.5566 63.2377 58.5769 63.6273 59.5975 63.6273C60.6179 63.6273 61.6391 63.238 62.4182 62.4577C63.9767 60.8994 63.9767 58.3706 62.4182 56.8123L48.1427 42.5258L62.4188 28.241C63.9773 26.6823 63.9773 24.1547 62.4188 22.5952Z" fill="white"/>
</g>
<defs>
<filter id="filter0_d" x="0" y="0" width="93" height="93.0528" filterUnits="userSpaceOnUse" color-interpolation-filters="sRGB">
<feFlood flood-opacity="0" result="BackgroundImageFix"/>
<feColorMatrix in="SourceAlpha" type="matrix" values="0 0 0 0 0 0 0 0 0 0 0 0 0 0 0 0 0 0 127 0"/>
<feOffset dx="4" dy="4"/>
<feGaussianBlur stdDeviation="2"/>
<feColorMatrix type="matrix" values="0 0 0 0 0 0 0 0 0 0 0 0 0 0 0 0 0 0 0.25 0"/>
<feBlend mode="normal" in2="BackgroundImageFix" result="effect1_dropShadow"/>
<feBlend mode="normal" in="SourceGraphic" in2="effect1_dropShadow" result="shape"/>
</filter>
</defs>
</svg>

<svg width="93" height="94" fill="none" xmlns="http://www.w3.org/2000/svg">
  <g filter="url(#filter0_d)">
    <path d="M42.5 0A42.56 42.56 0 000 42.53a42.56 42.56 0 0042.5 42.52A42.56 42.56 0 0085 42.53 42.56 42.56 0 0042.5 0zm0 79.48A36.98 36.98 0 015.57 42.53 36.98 36.98 0 0142.5 5.58a36.98 36.98 0 0136.93 36.95A36.98 36.98 0 0142.5 79.48z" fill="#000"/>
    <ellipse cx="42.5" cy="42.53" rx="42.5" ry="42.53" fill="#A10094"/>
    <path d="M62.42 22.6a3.99 3.99 0 00-5.64 0L42.5 36.88 28.23 22.6a3.99 3.99 0 10-5.65 5.64l14.28 14.29L22.58 56.8a4 4 0 005.64 5.65L42.5 48.17l14.28 14.29a3.97 3.97 0 005.64 0 4 4 0 000-5.65L48.14 42.53l14.28-14.29a4 4 0 000-5.64z" fill="#fff"/>
  </g>
  <defs>
    <filter id="filter0_d" x="0" y="0" width="93" height="93.05" filterUnits="userSpaceOnUse" color-interpolation-filters="sRGB">
      <feFlood flood-opacity="0" result="BackgroundImageFix"/>
      <feColorMatrix in="SourceAlpha" values="0 0 0 0 0 0 0 0 0 0 0 0 0 0 0 0 0 0 127 0"/>
      <feOffset dx="4" dy="4"/>
      <feGaussianBlur stdDeviation="2"/>
      <feColorMatrix values="0 0 0 0 0 0 0 0 0 0 0 0 0 0 0 0 0 0 0.25 0"/>
      <feBlend in2="BackgroundImageFix" result="effect1_dropShadow"/>
      <feBlend in="SourceGraphic" in2="effect1_dropShadow" result="shape"/>
    </filter>
  </defs>
</svg>
